X:96
T:Polska efter Pelle Fors
R:sl\"angpolska
H:Efter Anselm och Allan Hellstr\"om
A:\"Osterg\"otland
Z:id:hn-sp-96
M:3/4
L:1/16
K:D
d3d B4 e4 | dcBc d2A2 F2A2 | d3d B2B2 e2e2 | dcBc d8 :|
|: d3d e4 a4 | a2f2 g2e2 f2d2 | d3d e4 a4 | a2f2 g2e2 f2d2 |
d3d B2B2 e2e2 | dcBc d8 :|
P:Jfr Bagge nr 18:
edcd B4 e4 | dcBc d2A2 F2A2 | edcd B2B2 e2e2 | dcBc d6 z2 :|
|: edcd e4 a4 | a2a2 fgfe f2gf | edcd e4 a4 | a2a2 fgfe f2gf |
edcd B4 e4 | dcBc d6 z2 :|
<end>
<start>
